src/svg/maxcdn.svg

<svg height="1000" width="1000.0" xmlns="http://www.w3.org/2000/svg">
    <path d="m900.6 864.6h-190.2l101.3-474c4.5-19.9 1.8-38.1-8.6-50.2-9.7-11.9-26.7-18.7-47.2-18.7h-96.3l-116.2 542.9h-190.3l116.2-542.9h-162.9l-116.2 542.9h-190.2l116.2-542.9-87.1-186.3h726.8c76.9 0 147 31.8 192 87.6 45.5 55.9 62.1 131.7 46 206.9z" />
  </svg>

<svg height="1000" width="1000" xmlns="http://www.w3.org/2000/svg"><path d="M900.6 864.6H710.4l101.3 -474c4.5 -19.9 1.8 -38.1 -8.6 -50.2 -9.7 -11.9 -26.7 -18.7 -47.2 -18.7h-96.3L543.4 864.6H353.1L469.3 321.7H306.4L190.2 864.6H0L116.2 321.7 29.1 135.4h726.8c76.9 0 147 31.8 192 87.6 45.5 55.9 62.1 131.7 46 206.9l-93.3 434.7z"/></svg>
